X:1
T:Vatene lietai
T:Vatene lietai
T:Orlande de Lassus
C:Orlande de Lassus
%%score [ 1 2 [ 3 4 ] ]
L:1/8
Q:1/4=76
M:2/2
K:F
V:1 treble nm="Superius" snm="S"
V:2 treble nm="Altus" snm="A"
V:3 treble-8 nm="Tenor 1" snm="T 1"
V:4 treble-8 nm="Tenor 2" snm="T 2"
V:1
 c3 c c2 d2- | d2 c2 c2 f2- | f2 e2 c2 d2- | dc c4 B2 | c8 | z4 z2 c2- | cA d2 cf d2 | %7
w: Va te- ne lie-|* tai'ho- mai cop-|* pia d'a- mi-||ci,|u,|_ ti scor- g'il des- ti-|
 cAcd =BB c2- | c2 c2 z2 d2- | dc c2 c2 B2 | A2 z d dc B2 | A2 z2 z cBA | G4 G4 | z2 A2 A2 A2 | %14
w: no, u' ti scor- g'il des- ti-|* no a|_ gui- dar i tuoi|di lie- ti'e fe- li-|ci lie- ti'e fe-|li- ci,|gio- ve ti|
 B4 B2 d2- | d2 c2 c2 B2 | c4 c2 z d- | d =B2 c AAB>B |"^b" cd e2 d4 | z8 | z2 z G2 ABc- | %21
w: pre- sti se-|* cu- ro'il ca-|mi- no, col|_ ti ren- d'i fe- ri ven-|ti a- mi- ci,||ve- ner dis- cac-|
 c/A/ d2 c z ddd | g/f/e/d/ef e2 c2 | z c2 B A/B/c/B/G/A/B | A2 G2 A2 c2- | cc d2 cc =B2 | c4 z4 | %27
w: * * * ci e con il|ciel _ _ _ _ be- ni- gno,|ti- n'a- por- * * * * * *|ti'an- cho- ra, a|chi t'a- ma et a- do-|ra,|
 z4 G3 G | A2 c2 d4 | c4 z2 c2- | cc f2 e2 d2 | c8 | c8 |] %33
w: te n'a-|por- ti'an- cho-|ra, a|_ chi t'a- ma'et a-|do-|ra.|
V:2
 A3 A A2 B2- | B2 G2 A2 c2 | c2 c2 G4- | G4 G4 | z2 G3 E A2 | F2 D2 G2 C2 | F3 D A2 BA | %7
w: Va- te- ne lie-|* tai'ho- mai cop-|pia d'a- mi-|* ci,|u, ti scor-|g'il des- ti- no,|u, ti scor- g'il des-|
 AF A2 GDAA | G2 A2 z2 B2- | BG G2 A2 G2 | FFED A2 D>E | FA>AG FEGF | EE D2 E4 | z2 F3 F F2 | %14
w: ti- no u, ti scor- g'il des-|ti- no a|_ gui- dar i tuoi|di lie- ti'e fe- li- * *|ci, a gui- dar i tuoi di lie-|ti'e fe- li- ci,|gio- ve ti|
 G4 F2 B2- | B2 A2 G2 F2 | G4 A2 z F- | FGDE F2 FG | GF c2 F4 | F3 F E F2 E | D2 E4 z G | %21
w: pre- sti se|_ cu- ro'il ca-|mi- no, col|_ ti ren- d'i fe- ri ven-|ti a- mi- ci,|e glin flu- xi ne-|mi- ci ve-|
 AABA z F B2 | G c2 c ccGG | A2 GG F E/D/E/F/G | C F2 E F2 A2- | AA B2 GA G2 | G4 A3 G | %27
w: ner dis- cac- ci, e con|il ciel, e con il ciel be-|ni- gno te n'a- por- * * * *|ti'an- cho- ra, a chi|_ t'a- ma et a- do-|ra, a- chi|
 G E2 F D2 E2 | z2 A3 AFG | A2 A2 G3 G | A2 c4 B2 | A2 GF G4 | A8 |] %33
w: t'a- ma'et a- do- ra,|te- n'a- por- ti'an|cho- ra- a- chi|t'a- ma'et a-|do- * * *|ra.|
V:3
 f3 f f4 | g2 e2 f2 a2 | g3 f e2 d2 | e4 d4 | c4 c3 A | d2 =B2 c2 A2 | F2 z f2 dgf- | fc f2 dgef- | %8
w: Va- te- ne|lie- tai'ho- mai cop-|pia _ _ d'a-|mi- *|ci, u, ti|scor- g'il des- ti-|no, u- ti scor- g'il|_ des- ti- no, il des- ti-|
 fe f2 z2 f2- | fe e2 f2 d2 | d2 g2 fe g2 | dfed c2 dd | =B c2 B c4 | z2 c3 c c2 | _e4 d2 f2- | %15
w: * * no a|_ gui- dar i tuoi|di lie- ti'e fe- li-|ci, a gui- dar i tuoi lie-|ti'e fe- li- ci,|gio- ve ti|pre- sti se-|
 f2 f2 e2 f2- | f2 e2 f f2 d | d2 g2 c d2 G | G B2 A B2 d2- | dcd c2 A Bc- | cB c2 c2 de | %21
w: * cu- ro'il ca|_ mi- no, col ti|ren- d'i fe- ri ven-|ti a- mi- ci, e|_ glin flu- xi ne- mi- *|* * ci, ve- ner dis-|
 f2 e2 d2 g2 | e a2 a g>f e/d/e | f2 d3 AcG | AF c2 F2 f2- | ff f2 ef d2 | e2 e3 f e2- | %27
w: cac- ci, e con|il ciel, e con _ il _ ciel|be- ni- gno te n'a-|por- ti'an- cho- ra, a|_ chi t'a- ma'et a- do-|ra, a chi t'a-|
 e c2 A =B2 cc- | cc f4 d2 | e2 f2 e3 e | f2 a3 g f2- | f2 ed e f2 e | f8 |] %33
w: * ma'et a- do- ra,- te|_ n'a- por- ti'an-|cho- ra,- a chi|t'a- ma'et- a- do-||ra.|
V:4
 z2 F3 F B2 | G2 c2 F4 | c4 c2 =B2 | c4 G4 | C4 z2 F2- | FD G2 E2 F2 | c2 B2 z4 | F3 D G2 AF | %8
w: Va- te- ne|lie- tai'ho- mai|cop- pia d'a-|mi- *|ci, u,|_ ti scor- g'il des-|ti- no,|u, ti scor- g'il des-|
 c2 F2 z2 B2- | Bc c2 F2 G2 | DdcB A2 G2 | z dcB A2 GD | EC G2 C4 | z2 F2 F2 F2 | _E4 B,2 B2- | %15
w: ti- no a|_ gui- dar i tuoi|di lie- ti'e fe- li- ci,|a gui- dar i tuoi- lie-|ti'e fe- li- ci,|gio- ve ti|pre- sti se-|
 B2 F2 c2 d2 | c4 F2 B2- | BGGC F D2 _E | _ED C2 B,2 B2- | BAB A2 F G2- | G2 C4 z2 | z FGA B2 G2 | %22
w: * cu- ro'il ca-|mi- no, col|_ ti ren- d'i fe- ri ven-|ti a- mi- ci, e|_ glin flu- xi ne- mi-|* ci,|ve- ner dis- cac- ci,|
 z AAF c2 c2 | F2 G2 z4 | z4 z2 F2- | FF B2 cF G2 | C2 c3 d c2 | C3 F G2 C2 | F3 F D2 B2 | %29
w: e con il ciel be-|ni- gno|a|_ chi t'a- ma'et a- do-|ra, a chi t'a-|ma'et a- do- ra,-|te n'a- por- ti'an-|
 A2 F2 c3 C | F4 A2 B2 | c8 | F8 |] %33
w: cho- ra, a- chi|t'a- ma'et a-|do-|ra.|

